!!!OTL-incipit: HERR DIETHER TRAUN IST EIN GESELL
!!!ARE: Europa, Mitteleuropa, Deutschland, Herzogtum Berg
!!!SCT: Z0099
!!!TXL: @@DE, (@@LAT)
!!!YEM: Copyright 1995, estate of Helmut Schaffrath.
**kern	**text
*ICvox	*
*M2/4	*
*k[]	*
*C:	*
!LO:TX:a:t=Bergiſch.	!
{8g	Herr
=1	=1
8.cc	Die-
16cc	-ther
8.b/	traun
16b/	iſt
=2	=2
8.a	ein
16a	Ge-
4g}	-ſell,
=3	=3
!LO:TX:a:t=Alle.	!
{8f	Glo-
16f	-ri-
16f	-a
8e	ti-
8cc	-bi
=4	=4
8dd;L	do-
16ccJ	.
16b	-mi-
8cc}	-ne!
!LO:TX:a:t=Vorſänger.	!
{8g	Dem
=5	=5
8.cc	Pfaffen
16cc	.
8.b	kam
16b	er
=6	=6
8.a	ü-
16a	-bers
4g}	Fell.
=7	=7
!LO:TX:a:t=Alle.	!
{8f	Giori-
16f	.
16f	-a
8e	ti-
8cc	-bi
=8	=8
8dd;L	do-
16ccJ	.
16b	-mi-
4cc}	-ne,
=9	=9
{8ee	glo-
16ee	-ri-
16ee	-a-
4ee	-ti
=10	=10
8dd	glo-
16dd	-ri-
16dd	-a-
4dd}	-ti
=11	=11
{8cc	glo-
16cc	-ri-
16cc	-a
8a	ti-
8b/	-bi
=12	=12
8dd;L	do-
16ccJ	.
16b	-mi-
8cc}	-ne.
==	==
!!!AGN: Sagen - Lied, Romanze, Anti - Pfaeffisch, Spott, Parodie (Latein)
!!!ONB: ESAC (Essen Associative Code) Database: ZUCCAL
!!!AMT: simple duple
!!!AIN: vox
!!!EED: Helmut Schaffrath
!!!EEV: 1.0
!!!GTL: I. Ernste Romanzen und Sagen.
!!!URL-scan: https://www.digitale-sammlungen.de/de/view/bsb11160571?page=194
!!!ENC: Anna Maria Matuszewska
!!!EEV: 2025/01/27
*-	*-
